X:1
T:Fado das Horas
C:Traditional
L:1/8
M:4/4
K:Emaj
| z2 E FG/G/G FE/E/-EF- | F4 z4 | (3AAA- A A3/B/- B/A/G/F/ | E4 z E2 B- |
BE E2- EF- F/G/B- | B4  z E/E/- E3/C/- |  C B,3 z B, C/D/F |  E4 z E- E3/B/- | 
B E2 E- E3/F/- FG | B4- B3/D/ D3/C/- | C B,3 z B, C/DF/- | FE- E4 z2 | 




